packages/axiom-components/src/Pictogram/svgs/key-stat.svg

<svg height="16" viewBox="0 0 16 16" width="16" xmlns="http://www.w3.org/2000/svg"><g fill-rule="evenodd"><path d="m3.88235294 12.0489723c.46323761 0 .8428294-.1929576 1.13878677-.5788786.29595736-.3859209.44393382-.9245448.44393382-1.61588787v-.66766357c-.21017262.29831925-.45894464.52323913-.74632353.67476637-.28737889.15152727-.59619933.22728977-.92647059.22728977-.87071514 0-1.5537659-.31252029-2.04917279-.93757016-.49540689-.62504988-.74310662-1.47501025-.74310662-2.54990663 0-1.03701456.29380834-1.89644525.88143382-2.57831784.58762549-.68187259 1.33823073-1.02280377 2.25183824-1.02280377.94363217 0 1.71353868.35040149 2.30974265 1.05121499.59620396.70081349.89430147 1.67152033.89430147 2.91214962v2.78429916c0 1.19327703-.32490484 2.14030813-.97472427 2.84112163-.64981942.7008135-1.47655748 1.0512149-2.48023897 1.0512149-.32598202 0-.66160979-.039065-1.00689338-.1171962-.34528359-.0781313-.67018843-.1882236-.97472427-.3302804l.31525736-1.4986916c.27022194.1231158.53400606.2130838.79136029.2699065s.54901798.0852337.875.0852337zm.22518382-3.48037399c.30453584 0 .57260914-.06865975.80422795-.20598131.2316188-.13732157.41605323-.32199262.55330882-.55401871v-1.20747668c0-.648726-.12009684-1.14473352-.36029412-1.48803743s-.56188524-.51495329-.96507353-.51495329c-.37745287 0-.68198413.19295758-.91360294.57887853-.2316188.38592094-.34742647.86062026-.34742647 1.42411219 0 .59190329.10508473 1.0677864.31525735 1.4276636s.51470389.5398131.91360294.5398131z"/><path d="m11.554619 12.0489723c.4813219 0 .8757325-.1929576 1.1832436-.5788786.3075112-.3859209.4612645-.9245448.4612645-1.61588787v-.66766357c-.2183775.29831925-.4768613.52323913-.7754591.67476637-.2985978.15152727-.6194742.22728977-.9626388.22728977-.9047068 0-1.61442303-.31252029-2.12916998-.93757016-.51474696-.62504988-.77211657-1.47501025-.77211657-2.54990663 0-1.03701456.30527824-1.89644525.9158439-2.57831784.61056565-.68187259 1.39047355-1.02280377 2.33974715-1.02280377.9804704 0 1.7804331.35040149 2.3999122 1.05121499.619479.70081349.9292138 1.67152033.9292138 2.91214962v2.78429916c0 1.19327703-.3375887 2.14030813-1.0127762 2.84112163-.6751876.7008135-1.5342005 1.0512149-2.5770645 1.0512149-.3387079 0-.6874382-.039065-1.0462012-.1171962-.358763-.0781313-.69635174-.1882236-1.01277628-.3302804l.32756461-1.4986916c.28077107.1231158.55485297.2130838.82225397.2699065.2674011.0568227.570451.0852337.9091589.0852337zm.2339748-3.48037399c.3164245 0 .5949631-.06865975.835624-.20598131.2406609-.13732157.4322954-.32199262.5749093-.55401871v-1.20747668c0-.648726-.1247853-1.14473352-.3743596-1.48803743s-.5838205-.51495329-1.0027488-.51495329c-.3921881 0-.7086079.19295758-.9492688.57887853-.2406609.38592094-.3609896.86062026-.3609896 1.42411219 0 .59190329.1091871 1.0677864.3275646 1.4276636s.5347973.5398131.9492689.5398131z"/></g></svg>

<?xml version="1.0" encoding="UTF-8"?>
<svg width="16px" height="16px" viewBox="0 0 16 16" version="1.1" xmlns="http://www.w3.org/2000/svg" xmlns:xlink="http://www.w3.org/1999/xlink">
    <!-- Generator: Sketch 46.2 (44496) - http://www.bohemiancoding.com/sketch -->
    <title>Key Stat</title>
    <desc>Created with Sketch.</desc>
    <defs></defs>
    <g id="Axiom-Icons" stroke="none" stroke-width="1" fill="none" fill-rule="evenodd">
        <g id="Key-Stat" fill="#000000">
            <path d="M3.88235294,12.0489723 C4.34559055,12.0489723 4.72518234,11.8560147 5.02113971,11.4700937 C5.31709707,11.0841728 5.46507353,10.5455489 5.46507353,9.85420583 L5.46507353,9.18654226 C5.25490091,9.48486151 5.00612889,9.70978139 4.71875,9.86130863 C4.43137111,10.0128359 4.12255067,10.0885984 3.79227941,10.0885984 C2.92156427,10.0885984 2.23851351,9.77607811 1.74310662,9.15102824 C1.24769973,8.52597836 1,7.67601799 1,6.60112161 C1,5.56410705 1.29380834,4.70467636 1.88143382,4.02280377 C2.46905931,3.34093118 3.21966455,3 4.13327206,3 C5.07690423,3 5.84681074,3.35040149 6.44301471,4.05121499 C7.03921867,4.75202848 7.33731618,5.72273532 7.33731618,6.96336461 L7.33731618,9.74766377 C7.33731618,10.9409408 7.01241134,11.8879719 6.36259191,12.5887854 C5.71277249,13.2895989 4.88603443,13.6400003 3.88235294,13.6400003 C3.55637092,13.6400003 3.22074315,13.6009353 2.87545956,13.5228041 C2.53017597,13.4446728 2.20527113,13.3345805 1.90073529,13.1925237 L2.21599265,11.6938321 C2.48621459,11.8169479 2.74999871,11.9069159 3.00735294,11.9637386 C3.26470717,12.0205613 3.55637092,12.0489723 3.88235294,12.0489723 Z M4.10753676,8.56859831 C4.4120726,8.56859831 4.6801459,8.49993856 4.91176471,8.362617 C5.14338351,8.22529543 5.32781794,8.04062438 5.46507353,7.80859829 L5.46507353,6.60112161 C5.46507353,5.95239561 5.34497669,5.45638809 5.10477941,5.11308418 C4.86458213,4.76978027 4.54289417,4.59813089 4.13970588,4.59813089 C3.76225301,4.59813089 3.45772175,4.79108847 3.22610294,5.17700942 C2.99448414,5.56293036 2.87867647,6.03762968 2.87867647,6.60112161 C2.87867647,7.1930249 2.9837612,7.66890801 3.19393382,8.02878521 C3.40410644,8.38866241 3.70863771,8.56859831 4.10753676,8.56859831 Z" id="99"></path>
            <path d="M11.554619,12.0489723 C12.0359409,12.0489723 12.4303515,11.8560147 12.7378626,11.4700937 C13.0453738,11.0841728 13.1991271,10.5455489 13.1991271,9.85420583 L13.1991271,9.18654226 C12.9807496,9.48486151 12.7222658,9.70978139 12.423668,9.86130863 C12.1250702,10.0128359 11.8041938,10.0885984 11.4610292,10.0885984 C10.5563224,10.0885984 9.84660617,9.77607811 9.33185922,9.15102824 C8.81711226,8.52597836 8.55974265,7.67601799 8.55974265,6.60112161 C8.55974265,5.56410705 8.86502089,4.70467636 9.47558655,4.02280377 C10.0861522,3.34093118 10.8660601,3 11.8153337,3 C12.7958041,3 13.5957668,3.35040149 14.2152459,4.05121499 C14.8347249,4.75202848 15.1444597,5.72273532 15.1444597,6.96336461 L15.1444597,9.74766377 C15.1444597,10.9409408 14.806871,11.8879719 14.1316835,12.5887854 C13.4564959,13.2895989 12.597483,13.6400003 11.554619,13.6400003 C11.2159111,13.6400003 10.8671808,13.6009353 10.5084178,13.5228041 C10.1496548,13.4446728 9.81206606,13.3345805 9.49564152,13.1925237 L9.82320613,11.6938321 C10.1039772,11.8169479 10.3780591,11.9069159 10.6454601,11.9637386 C10.9128612,12.0205613 11.2159111,12.0489723 11.554619,12.0489723 Z M11.7885938,8.56859831 C12.1050183,8.56859831 12.3835569,8.49993856 12.6242178,8.362617 C12.8648787,8.22529543 13.0565132,8.04062438 13.1991271,7.80859829 L13.1991271,6.60112161 C13.1991271,5.95239561 13.0743418,5.45638809 12.8247675,5.11308418 C12.5751932,4.76978027 12.240947,4.59813089 11.8220187,4.59813089 C11.4298306,4.59813089 11.1134108,4.79108847 10.8727499,5.17700942 C10.632089,5.56293036 10.5117603,6.03762968 10.5117603,6.60112161 C10.5117603,7.1930249 10.6209474,7.66890801 10.8393249,8.02878521 C11.0577024,8.38866241 11.3741222,8.56859831 11.7885938,8.56859831 Z" id="99"></path>
        </g>
    </g>
</svg>
